X: 
T: untitled march / Johnny Dohertys March
S: &quot;John Doherty, Master Fiddler of Donegal: Bundle And Go&quot;, track 21
K: A Dorian
M: 4/4
L: 1/8
Q: 2/2, 1/2 = 105 \`i 110 bpm
R: march
A4- |
A2 e2 e2 dB | d2 ef ge a2 | A2 e2 e2 dB | g2 ed B2 AG |
A2 e2 e2 dB | d2 ef ge a2 | ge dB e/f/e fd | ef dB A3 G |
A2 e2 e2 dB | d2 ef ge a2 | A2 e2 e/f/e dB | g2 ed B/c/B AG |
A2 e2 e2 dB | d2 ef ge a2 | ge dB g2 ed | B2 A2 A2 ||
|: BG |
A2 a2 a2 ge | d2 ef ge a2 | A2 a2 a2 ge | dg ed B/c/B A2 |
A2 a2 a2 ge | d2 ef ge a2 | ge dB g2 ed | B/c/B A2 A2 :|
BG |
A2 e2 e2 dB | d2 ef ge a2 | A2 e2 e2 dB | d2 ed B2 A2 |
A2 e2 e2 dB | d2 ef ge a2 | ge dB g2 ed | B2 A2 A2 BG |
A2 e2 e2 dB | d2 ef ge a2 | A2 e2 e2 dB | g2 ed B2 AG |
A2 e2 e2 dB | d2 ef ge a2 | ge dB g2 ed | B2 A2 A2 ||
|: BG |
A2 a2 a2 ge | d2 ef ge a2 | A2 a2 a2 ge | dg ed B/c/B A2 |
A2 a2 a2 ge | d2 ef ge a2 | ge dB g2 ed | B/c/B A2 A2 :|
BG |
A2 e2 e2 dB | d2 ef ge a2 | A2 e2 e2 dB | g2 ed B2 AG |
A2 e2 e2 dB | d2 ef ge a2 | ge dB e2 fd | ef dB A3 G |]
